X:1
T:Title
%%score { ( 1 3 ) | 2 }
L:1/8
M:4/4
K:Db
V:1 treble nm="Grand Piano"
V:3 treble 
V:2 bass 
V:1
 z4 z2[Q:1/4=100] [DF][EG] | [FA][FA][_F=G][_GB] [=FA][FA][GB][Gc] |[M:3/4] [Fd][Fd] [Ge][Fd] B2 | %3
[M:1/4] dB |[M:4/4] cccB GAcB |[M:3/4] A6 |[M:1/4] F[EG] | %7
[M:4/4] [FA][FA][_F=G][_GB] [=FA][FA][GB][Gc] |[M:3/4] [Fd][Fd] [Ge][Fd] B2 |[M:1/4] dd | %10
[M:4/4] ddcB [FA][FA][EG][CE] |[M:3/4] D6 |[M:1/4] [FA][FA] | %13
[M:4/4] [EG][EGc][EGc][EGc] [EGc]<[EGc] [GB][Gc] | [Fd][FA] [FA]>[GB] [FA]2 G>F | E6 z2 | %16
 [FA]2- [A,F-A-]>[A,F-A-] [A,FA]2 F[EG] | [FA][FA][_F=G][_GB] [=FA]2 [Gc][Ad] | %18
 [Ge][Ge][=Ge][Gd] [Ac]2 [AB][Ac] | [Ad][Ad][Ac]B AA[GB][Gc] |[M:3/4] [Fd]6 |] %21
V:2
 z4 z2 [D,A,][D,A,] | [D,D][D,D][D,D][D,D] [D,D][D,D][D,D][D,A,] | %2
[M:3/4] [D,A,][D,A,] [D,A,][D,D][K:treble] [G,DG]2 |[M:1/4] [G,B,G][G,EG] | %4
[M:4/4] [A,EG][A,EG][A,EG][A,EG] [A,E][A,F][A,A][A,CG] |[M:3/4][K:bass] [D,D]2 [E,C][E,C] [D,D]2 | %6
[M:1/4] [D,A,D][D,A,] |[M:4/4] [D,D][D,D][D,D][D,D] [D,D][D,D][D,D][D,A,] | %8
[M:3/4] [D,A,][D,A,] [D,A,][D,D][K:treble] [G,DG]2 |[M:1/4] [=G,B,_F][G,B,F] | %10
[M:4/4] [A,F][A,F][A,A][A,G][K:bass] [A,,A,][A,,A,][A,,A,][A,,G,] |[M:3/4] [D,F,]6 | %12
[M:1/4] [D,D][D,D] |[M:4/4] [A,C][A,,A,][A,,A,][A,,A,] [A,,A,]<[A,,A,] [A,,A,][G,,A,] | %14
 [D,A,][D,D] [D,D]>[D,D] [D,D]2 E>D | C6 [A,,A,]>A,, | D,2 F,>E, D,2 [D,A,D][D,A,] | %17
 [D,D][D,D][D,D][D,D] [D,D]2 [E,A,][F,A,] | [G,B,][G,B,][E,B,][E,E] [A,E]2 [G,E][G,E] | %19
 [F,D][F,D][G,D][G,DG] [A,DE][A,CE][A,,A,][A,,A,] |[M:3/4] [D,A,]6 |] %21
V:3
 x8 | x8 |[M:3/4] x6 |[M:1/4] x2 |[M:4/4] x8 |[M:3/4] F2 GG F2 |[M:1/4] x2 |[M:4/4] x8 | %8
[M:3/4] x6 |[M:1/4] x2 |[M:4/4] x8 |[M:3/4] x6 |[M:1/4] x2 |[M:4/4] x8 | x8 | %15
 z2 A,>A, A,A, [Gc]>[CGB] | D2 z2 z4 | x8 | x8 | x8 |[M:3/4] x6 |] %21

